**kern	**kern	**dynam
*part1	*part1	*part1
*staff2	*staff1	*
*I"Piano	*	*
*clefF4	*clefG2	*
*k[f#c#]	*k[f#c#]	*
=1	=1	=1
2GG#X 2D 2Fn	(12BL	.
.	12d	.
.	12fnJ	.
.	12bL	.
.	12dd	.
.	12ffnJ	.
=	=	=
2G#X 2d 2fn	12bbL	.
.	12ffn	.
.	12ddJ	.
.	12bL	.
.	12dd	.
.	12ffJ)	.
=	=	=
[2G#X [2d [2fn	12bbL	pp
.	12ffn	.
.	12ddJ	.
.	12bL	.
.	12dd	.
.	12ffJ	.
=	=	=
8G#X] 8d] 8fn]	8bb	.
8r	8r	.
4r;	4r;	.
=	=	=
4AA 4A	4dd 4ee 4ggn 4aa	ff
4r	4r	.
=	=	=
4AAA 4AA	4e 4g 4a 4cc#	.
4r;	4r;	.
=	=	=
!	!	!LO:DY:a
12DDL	8.dL 8.f#X 8.a 8.dd	ff
12AA	.	.
12DJ	.	.
.	16ff#Jk	.
12F#L	8.ff#L	.
12D	.	.
12AAJ	.	.
.	16aaJk	.
=	=	=
12DDL	8.ddL 8.ff# 8.aa	.
12AA	.	.
12DJ	.	.
.	16ff#Jk	.
12F#L	12ff#L	.
12D	12dd	.
12AAJ	12aJ	.
=	=	=
*-	*-	*-
!!!system-decoration: {(s1,s2)}
